X:1
T:House Carpenter or Demon Lover
M:4/4
L:1/4
K:C
C/2-D/2| E E EE/2-D/2| C D E D| C c E G| G3E/2-G/2| A A AG/2-E/2| GA/2-B/2 c A|\
G/2-E/2D/2-E/2 C C| C3||
